!!!SOCIAL_FUNCTION:	dance songs
!!!PDT:	1943
!!!OTL: No_49_Dance_Song_of_the_Thompson_River_Indians_(b).krn
!!!REG: British Columbia
**kern	**kern
*staff2	*staff1
=1-	=1-
*clefF4	*clefF4
*k[f#c#g#]	*k[f#c#g#]
*M2/4	*M2/4
8GG#/L	2c#\
8GG#/J	.
8GG#/L	.
8GG#/J	.
=2	=2
8GG#/L	8.B\L
8GG#/J	.
.	16G#\Jk
8GG#/L	8G#\
8GG#/J	8r
=3	=3
2r	8c#\L
.	16B\L
.	16c#\JJ
.	8..c#\L
.	32F#\Jkk
=4	=4
2r	8.F#\L
.	16G#\Jk
.	8.G#\L
.	16F#\Jk
=5	=5
2r	8F#\
.	8r
.	8.F#\L
.	16F#\Jk
=6	=6
2r	2F#\
=7	=7
2r	4C#/
.	8C#/
.	8r
=8||	=8||
*M3/4	*M3/4
2.r	8G#\L
.	16F#\L
.	16G#\JJ
.	4..G#\
.	16B\
=9||	=9||
*M2/4	*M2/4
2r	8B\L
.	16G#\L
.	16F#\JJ
.	8F#\
.	8r
=10||	=10||
*M3/4	*M3/4
2.r	12B\L
.	12G#\
.	12B\J
.	4B\
.	8.F#\L
.	16G#\Jk
=11	=11
2.r	8.G#\L
.	16F#\Jk
.	8F#\
.	8r
.	8.F#\L
.	16F#\Jk
=12||	=12||
*M2/4	*M2/4
2r	2F#\
=13	=13
2r	8.C#/L
.	16C#/Jk
.	8C#/
.	8r
==	==
*-	*-
